X: 88
T: No_49_Song_of_the_Thunderers.krn
N: Derived from No_49_Song_of_the_Thunderers.krn
%%abc-version 2.0
%%abcx-abcm2ps-target-version 5.9.1 (29 Sep 2008)
%%abc-creator hum2abc beta
%%abcx-conversion-date 2019/03/15 08:35:45
%%humdrum-veritas 448475740
%%humdrum-veritas-data 815553302
%%linebreak <none>
%%barnumbers 0
L: 1/8
M: 2/4
K: B clef=bass
[K:clef=bass][M:2/4]CCC2 [I:setbarnb 2]| 
C2CB, | 
C4 | 
C4 ||  
[M:3/4]B,B,B,2A,G, ||  
[M:2/4]F,4 | 
F,2z2 | 
CCC2 | 
B,2A,G, | 
B,4 | 
B,4 ||  
[M:3/4]G,B,B,2A,G, ||  
[M:2/4]F,4 | 
F,2z2 | 
B,B,B,2 | 
G,2F,F, | 
F,4 | 
F,2z2 | 
F,E,D,2 | 
C,2D,C, | 
B,,4 | 
B,,4 ||  
[M:3/4]C,C,C,2C,B,, ||  
[M:2/4]C,4 | 
C,2z2 | 
C,B,,B,,2 | 
B,,2G,,F,, | 
F,,4 | 
F,,4 :|]  



